**kern	**silbe
*ICvox	*
=1	=1
*A:	*
*M4/4	*
*clefG2	*
1r	.
=2	=2
1r	.
=3	=3
1r	.
=4	=4
1r	.
=5	=5
1r	.
=6	=6
4r	.
8r	.
16c#	Chi-
16d	-qui-
8e	-ti-
8f#	-ta
16e	tell
16d	me
8c#	what's
=7	=7
2e	wrong?.
2r	.
=8	=8
4r	.
8r	.
16c#	You're
16d	en-
4e	-chained
4f#	by
=9	=9
8e	your
8d	own
8c#	sor-
[8B	-row.
2B]	_
=10	=10
1r	.
=11	=11
4.g#	In
16f#	_
16g#	_
4.a	_
8f#	your
=12	=12
4.e	eyes
16B	there
16c#	is
4d	no
4d	hope
=13	=13
8d	for
8c#	to-
8B	-morr-
[8c#	-ow.
2c#]	_
=14	=14
4r	.
8r	.
16c#	How
16d	I
8e	hate
8f#	to
16e	see
16d	you
8c#	like
=15	=15
2e	this.
2r	.
=16	=16
4r	.
8r	.
16c#	There
16d	is
4e	no
4f#	way
=17	=17
8g#	you
16f#	can
16e	de-
8g#	-ny
[8e	it.
4e]	_
4r	.
=18	=18
1r	.
=19	=19
4.g#	I
16f#	_
16g#	_
4.a	_
8f#	can
=20	=20
4.e	see
16B	that
16c#	you're
4d	oh
4d	so
=21	=21
8.d	sad,
16c#	so
8B	qui-
[8A	-et.
2A]	_
=22	=22
4r	.
8r	.
16c#	Chi-
16d	-qui-
8e	-ti-
8f#	-ta
16e	tell
16d	me
8c#	the
=23	=23
2e	truth.
2r	.
=24	=24
4r	.
8r	.
16c#	I'm
16d	a
4e	shoul-
4f#	-der
=25	=25
8e	you
8d	can
8c#	cry
[8B	on.
2B]	_
=26	=26
1r	.
=27	=27
4.g#	Your
16f#	_
16g#	_
4.a	_
8f#	best
=28	=28
4.e	friend;
16B	I'm
16c#	the
4d	one
4d	you
=29	=29
8d	must
16c#	re-
[16B	-ly
8B]	_
[8c#	on.
2c#]	_
=30	=30
4r	.
8r	.
16c#	You
16d	were
8e	al-
8f#	-ways
16e	sure
16d	of
8c#	your-
=31	=31
4e	-self.
4r	.
2r	.
=32	=32
4r	.
8r	.
16c#	Now
16d	I
4e	see
4f#	you've
=33	=33
8g#	bro-
16f#	-ken
16e	a
8g#	fea-
[8e	-ther.
2e]	_
=34	=34
1r	.
=35	=35
4.g#	I
16f#	_
16g#	_
4.a	_
8f#	_
=36	=36
4e	hope
8r	.
16d	we
16e	can
8r	.
[8f#	patch
8f#]	_
16f#	it
16f#	up
=37	=37
16r	.
8e	to-
[16d	-ge-
8d]	_
[8c#	-ther.
2c#]	_
=38	=38
4r	.
8r	.
16f#	Chi-
16g#	-qui-
8a	-ti-
8b	-ta
16a	you
16g#	and
8f#	I
=39	=39
[1a	know
=40	=40
*M5/4	*
4a]	_
8r	.
16f#	how
16g#	the
8a	heart-
8b	-aches
16a	come
16g#	and
8f#	they
8a	go,
16f#	and
16g#	the
=41	=41
*M4/4	*
8a	scars
8e	they're
8d	leav-
[8c#	-ing.
2c#]	_
=42	=42
4r	.
8c#	You'll
16d	be
[16e	dan-
8e]	_
8f#	-cing
8g#	once
16a	a-
[16g#	-gain;
=43	=43
4.g#]	_
16f#	and
16g#	the
[4a	pain
8a]	_
8f#	will
=44	=44
4e	end.
8r	.
16B	You
16c#	will
4d	have
4d	no
=45	=45
8d	time
16c#	for
[16B	grie-
8B]	_
[8c#	-ving.
2c#_	_
=46	=46
4c#]	_
8r	.
16f#	Chi-
16g#	-qui-
8a	-ti-
8b	-ta
16a	you
16g#	and
8f#	I
=47	=47
[1a	cry;
=48	=48
*M5/4	*
4a]	_
8r	.
16f#	but
16g#	the
8a	sun
8b	is
16a	still
16g#	in
8f#	the
8a	sky,
8b	and
=49	=49
*M4/4	*
8cc#	shin-
16b	-ing
16a	a-
8cc#	-bove
[8a	you.
2a]	_
=50	=50
4r	.
8c#	Let
16d	me
[16e	hear
8e]	_
8f#	you
8g#	sing
8b	once
=51	=51
4.g#	more|
16f#	like
16g#	you
[4a	did
8a]	_
8f#	be-
=52	=52
4e	-fore.
8r	.
16d	Sing
16e	a
4f#	new
4f#	song
=53	=53
8f#	Chi-
16e	-qui-
[16d	-ti-
8d]	_
[8c#	-ta.
2c#]	_
=54	=54
2r	.
4.b	Try
8a	once
=55	=55
4.g#	more|
16f#	like
16g#	you
4.a	did
8f#	be-
=56	=56
4e	-fore.
8r	.
16B	Sing
16c#	a
4d	new
4d	song
=57	=57
8d	Chi-
16c#	-qui-
[16B	-ti-
8B]	_
[8A	-ta.
2A_	_
=58	=58
4.A]	_
16c#	So
16d	the
8e	walls
8f#	came
16e	tum-
16d	-bl-
8c#	-ing
=59	=59
2e	down;
2r	.
=60	=60
4r	.
8r	.
16c#	and
16d	your
4e	love's
4f#	a
=61	=61
8e	blown
8d	out
8c#	can-
[8B	-dle.
2B]	_
=62	=62
1r	.
=63	=63
4.g#	All
16f#	_
16g#	_
4.a	_
8f#	is
=64	=64
4e	gone;
8r	.
16B	and
16c#	it
4d	seems
4d	too
=65	=65
8d	hard
8c#	to
8B	han-
[8c#	-dle.
2c#]	_
=66	=66
4r	.
8r	.
16c#	Chi-
16d	-qui-
8e	-ti-
8f#	-ta
16e	tell
16d	me
8c#	the
=67	=67
2e	truth.
2r	.
=68	=68
4r	.
8r	.
16c#	There
16d	is
4e	no
4f#	way
=69	=69
8g#	you
16f#	can
16e	de-
8g#	-ny
[8e	it.
2e]	_
=70	=70
1r	.
=71	=71
4.g#	I
16f#	_
16g#	_
4.a	_
8f#	_
=72	=72
4e	see
8r	.
16B	that
16c#	you're
4d	oh
4d	so
=73	=73
4d	sad,
8c#	so
8B	qui-
2A	-et
=74	=74
4r	.
8r	.
16f#	Chi-
16g#	-qui-
8a	-ti-
8b	-ta
16a	you
16g#	and
8f#	I
=75	=75
1a	know
=76	=76
*M5/4	*
4r	.
8r	.
16f#	how
16g#	the
8a	hear-
8b	-taches
16a	come
16g#	and
8f#	they
8a	go,
16f#	and
16g#	the
=77	=77
*M4/4	*
8a	scars
8e	they're
8d	leav-
[8c#	-ing
2c#]	_
=78	=78
4r	.
8c#	You'll
16d	be
[16e	dan-
8e]	_
8f#	-cing
8g#	once
16a	a-
[16g#	-gain;
=79	=79
4.g#]	_
16f#	and
16g#	the
4.a	pain
8f#	will
=80	=80
4e	end.
8r	.
16B	You
16c#	will
4d	have
4d	no
=81	=81
8d	time
16c#	for
[16B	griev-
8B]	_
[8c#	-ing.
2c#]	_
=82	=82
4r	.
8r	.
16f#	Chi-
16g#	-qui-
8a	-ti-
8b	-ta
16a	you
16g#	and
8f#	I
=83	=83
1a	cry;
=84	=84
*M5/4	*
4r	.
8r	.
16f#	but
16g#	the
8a	sun
8b	is
16a	still
16g#	in
8f#	the
8a	sky,
8b	and
=85	=85
*M4/4	*
8cc#	shin-
16b	-ing
16a	a-
8cc#	-bove
[8a	you
2a]	_
=86	=86
4r	.
8c#	Let
16d	me
[16e	hear
8e]	_
8f#	you
8g#	sing
8a	once
=87	=87
4.g#	more|
16f#	like
16g#	you
4.a	did
8f#	be-
=88	=88
4e	-fore.
8r	.
16d	Sing
16e	a
4f#	new
4f#	song
=89	=89
8f#	Chi-
16e	-qui-
[16d	-ti-
8d]	_
[8c#	-ta
2c#]	_
=90	=90
2r	.
4.b	Try
8a	once
=91	=91
4.g#	more|
16f#	like
16g#	you
4.a	did
8f#	be-
=92	=92
4.e	-fore.
16d	Sing
16e	a
4f#	new
4f#	song
=93	=93
8f#	Chi-
16e	-qui-
[16d	-ti-
8d]	_
[8c#	-ta.
2c#]	_
=94	=94
2r	.
4.b	Try
8a	once
=95	=95
4.g#	more|
16f#	like
16g#	you
4.a	did
8f#	be-
=96	=96
4e	-fore.
8r	.
16B	Sing
16c#	a
4d	new
4d	song
=97	=97
8f#	Chi-
8e	-qui-
8d	-ti-
[8c#	-ta
2c#]	_
=98	=98
1r	.
=99	=99
1r	.
=100	=100
1r	.
=101	=101
1r	.
=102	=102
1r	.
=103	=103
1r	.
=104	=104
1r	.
=105	=105
1r	.
=106	=106
1r	.
=107	=107
1r	.
=108	=108
1r	.
=109	=109
1r	.
=110	=110
1r	.
=111	=111
1r	.
=112	=112
1r	.
=113	=113
1r	.
*-	*-
!!!ENC: Nathaniel Condit-Schultz